X:19
T:The Kid on the Mountain
M:9/8
L:1/8
R:slipjig
D:Highland Sun: Celtic Crossover
K:Em
|:"Em"E2E "D"FEF "Em"G2F|"B7"E3  BcB BGE|\
"Em"EDE "D"FEF "Em"G2A|BAG "D"FAG FED:|
|:"Em"BGB "D"AFA "G"G2D|GAB dge dBA|\
"Em"BGB "D"AFA "G"G2A|BAG "D"FAG FED:|
|:"Em"~g3 e2e e2f|g3  efg "D"afd|\
"Em"~g3 e2e ega|bag "D"fag fed:|
|:"Em"eBB e2f g2f|eBB efg "D"afd|\
"Em"eBB e2e ega|bag "D"fag fed:|
|:"G"edB "D"dBA "G"G2D|GAB dge dBd|\
"D"edB dBA "G"G2A|BAG "D"FAG FED:|
